X:1
T:Title
%%score { 1 | 2 }
L:1/8
M:4/4
K:F
V:1 treble nm="Grand Piano"
V:2 bass 
V:1
 z4 z2[Q:1/4=100] F>G | A2 A2 A2 A2 | [CAc]6 [CGB]>[CFA] | [CEG]2 [CEG]2 [CF]2 [CEG]2 | %4
 [CFA]6 [A,CF]>[A,CE] | [B,D]2 [B,DE]2 [DF]2 [DG]2 |[M:3/4] [^CEA]6 |[M:1/4] [A,^CA]>[A,CG] | %8
[M:4/4] [A,DF]2 [A,EG]2 [A,FA]2 [F=B]2 | [Ec]6 z2 | A2 d2 c2 A2 | F2 B2 A2 [EA]>[EG] | %12
 F2 F2 G2 G2 |[M:3/4] F6 |] %14
V:2
 z4 z2 [F,A,C]>[F,B,C] | [F,CF]2 [F,CF]2 [F,CF]2 [F,CF]2 | F,6 F,>F, | C,2 C,2 A,,2 C,2 | %4
 F,6 F,>F, | B,,2 B,,2 B,,2 B,,2 |[M:3/4] A,,6 |[M:1/4] A,,>A,, |[M:4/4] D,2 D,2 D,2 [G,,G,]2 | %9
 [C,G,]6 z2 | [F,F]2 [F,B,F]2 [F,A,F]2 [F,CF]2 | [F,A,]2 [F,DF]2 [F,CF]2 [C,C]>[C,B,] | %12
 [C,A,]2 [C,A,C]2 [C,B,C]2 [C,B,C]2 |[M:3/4] [F,A,C]6 |] %14

